; HEADER_BLOCK_START
; generated by OrcaSlicer 2.3.0 on 2025-06-05 at 23:51:17
; total layer number: 13
;_GP_TOTAL_LAYER_NUMBER_PLACEHOLDER
; filament_density: 1.24
; filament_diameter: 1.75
; max_z_height: 2.60
; HEADER_BLOCK_END

; THUMBNAIL_BLOCK_START

;
; THUMBNAIL_BLOCK_END

; external perimeters extrusion width = 0.42mm
; perimeters extrusion width = 0.45mm
; infill extrusion width = 0.45mm
; solid infill extrusion width = 0.42mm
; top infill extrusion width = 0.42mm
; first layer extrusion width = 0.50mm

; EXECUTABLE_BLOCK_START
EXCLUDE_OBJECT_DEFINE NAME=V2Ottomat3d_Logomark_-_Black.stl_id_0_copy_0 CENTER=128.5,128.5 POLYGON=[[113.5,122.984],[113.764,121.159],[113.956,120.043],[114.785,118.41],[115.313,117.414],[116.609,116.093],[117.414,115.313],[119.046,114.46],[120.043,113.956],[121.567,113.704],[121.867,113.656],[122.984,113.5],[134.004,113.5],[135.829,113.764],[136.945,113.956],[138.578,114.785],[139.574,115.313],[140.895,116.609],[141.675,117.414],[142.528,119.046],[143.032,120.043],[143.284,121.567],[143.332,121.867],[143.5,122.984],[143.5,134.004],[143.224,135.829],[143.032,136.945],[142.203,138.578],[141.675,139.574],[140.379,140.895],[139.574,141.675],[137.942,142.528],[136.945,143.032],[135.421,143.284],[135.121,143.332],[134.004,143.5],[122.984,143.5],[121.159,143.224],[120.043,143.032],[118.41,142.203],[117.414,141.675],[116.093,140.379],[115.313,139.574],[114.46,137.942],[113.956,136.945],[113.704,135.421],[113.656,135.121],[113.5,134.004],[113.5,122.984]]
M106 S0
M106 P2 S0
;TYPE:Custom
;;===== date: 20240520 =====================
;printer_model:Elegoo Centauri Carbon
;initial_filament:PLA
;curr_bed_type:Textured PEI Plate
M400 ; wait for buffer to clear
M220 S100 ;Set the feed speed to 100%
M221 S100 ;Set the flow rate to 100%
M104 S140
M190 S55
G90
G28 ;home
M729 ;Clean Nozzle


;=============turn on fans to prevent PLA jamming=================

    
    M106 P3 S255
    ;Prevent PLA from jamming


;enable_pressure_advance:false
;This value is called if pressure advance is enabled

M204 S5000 ;Call exterior wall print acceleration


G1 X128.5 Y-1.2 F20000
G1 Z0.3 F900
M109 S220
M83
G92 E0 ;Reset Extruder
G1 F4800 
G1 X-1.2 E10.156 ;Draw the first line
G1 Y98.8 E7.934
G1 X-0.5 Y100 E0.1
G1 Y-0.3 E7.934
G1 X78.5 E6.284
G1 F960 
G1 X98.5 E2
G1 F4800 
G1 X118.5 E2
G1 F960 
G1 X138.5 E2
G1 F4800 
G1 X158.5 E2
G1 F4800 
G1 X178.5 E2
;End PA test.


G3 I-1 J0 Z0.6 F1200.0 ;Move to side a little
G1 F20000
G92 E0 ;Reset Extruder
;LAYER_COUNT:13
;LAYER:0
G90
G21
M83 ; use relative distances for extrusion
; Filament gcode
M106 P2 S0
;LAYER_CHANGE
;Z:0.2
;HEIGHT:0.2
;BEFORE_LAYER_CHANGE
;0.2
G92 E0

G1 E-.8 F1800
;LAYER:1

;_SET_FAN_SPEED_CHANGING_LAYER
SET_VELOCITY_LIMIT ACCEL=500
EXCLUDE_OBJECT_START NAME=V2Ottomat3d_Logomark_-_Black.stl_id_0_copy_0
G1 X118.804 Y139.252 F30000
G1 Z.6
G1 Z.2
G1 E.8 F1800
;TYPE:Inner wall
;WIDTH:0.5
G1 F3000
G1 X118.719 Y139.224 E.00325
G1 X118.667 Y139.069 E.0059
G1 X118.395 Y138.933 E.01099
G1 X118.395 Y138.654 E.01008
G2 X118.203 Y138.372 I-.903 J.41 E.01238
G1 X118.191 Y137.549 E.02974
G2 X118.215 Y137.277 I-.657 J-.195 E.00992
G2 X118.239 Y137.14 I-.091 J-.087 E.00533
G2 X118.299 Y136.988 I-.046 J-.106 E.00657
G1 X118.454 Y136.83 E.008
G1 X118.622 Y136.414 E.01619
G1 X118.815 Y136.414 E.00698
G1 X118.815 Y136.054 E.01301
G1 X119.36 Y136.054 E.01968
G3 X119.432 Y136.018 I.054 J.018 E.00322
G1 X119.768 Y135.994 E.01218
G1 X120.209 Y135.994 E.01594
G2 X120.516 Y136.018 I.218 J-.814 E.01117
G1 X120.612 Y136.09 E.00434
G1 X120.761 Y136.09 E.00539
G2 X120.951 Y136.213 I.343 J-.321 E.00826
G1 X120.974 Y136.258 E.00182
G1 X121.261 Y136.258 E.01037
G1 X121.293 Y136.354 E.00366
G1 X121.361 Y136.354 E.00246
G1 X121.459 Y136.649 E.01122
G1 X121.635 Y136.737 E.00712
G1 X121.639 Y137.01 E.00984
G1 X121.786 Y137.083 E.00592
G1 X121.798 Y138.061 E.03533
G2 X121.786 Y138.246 I.272 J.111 E.00683
G1 X121.726 Y138.336 E.00388
G1 X121.591 Y138.742 E.01549
G1 X121.551 Y138.762 E.00159
G2 X121.498 Y139.111 I.584 J.268 E.01293
G1 X121.283 Y139.183 E.00818
G1 X121.212 Y139.397 E.00815
G1 X120.942 Y139.397 E.00976
G1 X120.653 Y139.494 E.01101
G1 X120.557 Y139.589 E.00489
G3 X119.067 Y139.613 I-.945 J-12.411 E.05385
G1 X119.067 Y139.553 E.00217
G1 X118.804 Y139.553 E.00952
G1 X118.804 Y139.292 E.00944
G1 X119.261 Y139.092 F30000
;TYPE:Outer wall
G1 F3000
G1 X119.261 Y138.952 E.00508
G2 X119.08 Y138.862 I-.18 J.136 E.00757
G2 X118.852 Y138.65 I-.277 J.069 E.01189
G2 X118.846 Y138.525 I-.203 J-.053 E.0046
G1 X118.756 Y138.359 E.00683
G2 X118.672 Y138.202 I-1.501 J.706 E.00642
G1 X118.66 Y138.183 E.00083
G3 X118.648 Y137.595 I7.028 J-.438 E.02125
G1 X118.672 Y137.477 E.00436
G3 X118.696 Y137.329 I3.139 J.435 E.0054
G2 X118.756 Y137.175 I-.123 J-.137 E.00622
G1 X118.844 Y137.085 E.00452
G1 X118.93 Y136.871 E.00833
G1 X119.01 Y136.871 E.00286
G1 X119.139 Y136.754 E.00633
G3 X119.272 Y136.649 I.171 J.081 E.00634
G1 X119.272 Y136.511 E.00498
G1 X119.55 Y136.511 E.01001
G3 X119.621 Y136.475 I.054 J.018 E.00323
G1 X119.876 Y136.451 E.00924
G1 X120.101 Y136.451 E.00814
G2 X120.363 Y136.475 I.217 J-.925 E.00954
G2 X120.572 Y136.547 I.193 J-.221 E.00817
G2 X120.931 Y136.715 I.41 J-.408 E.01463
G1 X120.963 Y136.811 E.00366
G1 X121.031 Y136.811 E.00246
G1 X121.085 Y136.973 E.00616
G1 X121.183 Y137.022 E.00394
G1 X121.185 Y137.168 E.00526
G3 X121.272 Y137.337 I-.346 J.285 E.00693
G1 X121.329 Y137.365 E.00231
G1 X121.341 Y137.987 E.02245
G2 X121.329 Y138.108 I.176 J.079 E.00448
G2 X121.217 Y138.418 I.794 J.461 E.01198
G2 X121.159 Y138.47 I.017 J.077 E.00294
G1 X121.117 Y138.618 E.00556
G2 X121.061 Y138.682 I.004 J.06 E.00342
G1 X121.041 Y138.692 E.00082
G1 X121.041 Y138.782 E.00324
G1 X120.922 Y138.822 E.00454
G1 X120.882 Y138.94 E.0045
G2 X120.649 Y138.977 I-.061 J.369 E.0087
G1 X120.627 Y139.02 E.00175
G1 X120.406 Y139.094 E.00842
G3 X120.332 Y139.132 I-.056 J-.018 E.00334
G1 X120.32 Y139.144 E.00061
G3 X119.525 Y139.156 I-.601 J-13.448 E.02873
G1 X119.525 Y139.096 E.00217
G1 X119.297 Y139.096 E.00821
G1 E-.728 F1800
;WIPE_START
G1 F30000
G1 X119.261 Y138.952 E-.00893
G1 X119.217 Y138.908 E-.00372
G1 X119.08 Y138.862 E-.00867
G1 X119.052 Y138.778 E-.00531
G1 X118.995 Y138.722 E-.00484
G1 X118.852 Y138.65 E-.00956
G1 X118.846 Y138.525 E-.00752
G1 X118.756 Y138.359 E-.01134
G1 X118.672 Y138.202 E-.01065
G1 X118.66 Y138.183 E-.00138
G1 X118.66 Y138.182 E-.00007
;WIPE_END
G1 X126.277 Y137.701 Z.6
G1 X142.254 Y136.693 Z.6
G1 Z.2
G1 E.8 F1800
;TYPE:Inner wall
G1 F3000
G1 X141.015 Y139.095 E.09764
G3 X139.095 Y141.015 I-152.022 J-150.095 E.09809
G1 X136.688 Y142.256 E.09784
G3 X133.943 Y142.693 I-32.266 J-194.017 E.10043
G1 X123.048 Y142.693 E.39361
G2 X120.296 Y142.254 I-31.564 J189.184 E.10071
G1 X117.893 Y141.015 E.09766
G3 X115.973 Y139.095 I150.083 J-152.011 E.09809
G1 X114.732 Y136.688 E.09784
G3 X114.307 Y133.946 I116.262 J-19.409 E.10025
G1 X114.307 Y123.046 E.39382
G1 X114.734 Y120.296 E.10054
G1 X115.973 Y117.893 E.09768
G3 X117.893 Y115.973 I151.987 J150.06 E.09809
G1 X120.3 Y114.732 E.09784
G3 X123.042 Y114.307 I19.408 J116.256 E.10025
G1 X133.941 Y114.307 E.39378
G1 X134.331 Y114.369 E.01428
G1 X136.692 Y114.734 E.0863
G1 X139.095 Y115.973 E.09767
G3 X141.015 Y117.893 I-150.057 J151.984 E.09809
G1 X142.256 Y120.3 E.09784
G3 X142.693 Y123.045 I-194.007 J32.264 E.10043
G1 X142.693 Y133.938 E.39355
G2 X142.26 Y136.653 I196.042 J32.652 E.09934
G1 X142.694 Y136.836 F30000
;TYPE:Outer wall
G1 F3000
G1 X141.389 Y139.366 E.10288
G3 X139.366 Y141.389 I-154.163 J-152.138 E.10333
G1 X136.834 Y142.695 E.10296
G3 X133.978 Y143.15 I-32.723 J-196.434 E.10449
G1 X123.012 Y143.15 E.39618
G2 X120.152 Y142.695 I-32.775 J196.579 E.10461
G1 X117.622 Y141.389 E.10288
G3 X115.599 Y139.366 I152.115 J-154.141 E.10333
G1 X114.292 Y136.834 E.10296
G3 X113.85 Y133.979 I117.857 J-19.73 E.10437
G1 X113.85 Y123.011 E.39627
G1 X114.293 Y120.153 E.1045
G1 X115.599 Y117.622 E.10289
G3 X117.622 Y115.599 I154.095 J152.07 E.10333
G1 X120.154 Y114.293 E.10296
G3 X123.009 Y113.85 I19.73 J117.855 E.10437
G1 X133.977 Y113.85 E.39626
G1 X134.402 Y113.917 E.01555
G1 X136.836 Y114.293 E.08897
G1 X139.366 Y115.599 E.10289
G3 X141.389 Y117.622 I-152.046 J154.071 E.10333
G1 X142.695 Y120.154 E.10296
G3 X143.15 Y123.01 I-196.432 J32.722 E.10449
G1 X143.15 Y133.975 E.39616
G2 X142.7 Y136.796 I197.288 J32.885 E.1032
G1 E-.728 F1800
;WIPE_START
G1 F30000
G1 X142.155 Y137.865 E-.072
;WIPE_END
G1 X140.856 Y130.344 Z.6
G1 X138.351 Y115.847 Z.6
G1 Z.2
G1 E.8 F1800
;TYPE:Bottom surface
;WIDTH:0.504165
G1 F6300
G1 X140.663 Y118.159 E.11919
G1 X141.358 Y119.506 E.05529
G1 X137.482 Y115.63 E.19987
G1 X136.556 Y115.152 E.03798
G1 X136.314 Y115.115 E.00891
G1 X141.877 Y120.677 E.28679
G1 X142 Y121.453 E.02863
G1 X135.543 Y114.995 E.33293
G1 X134.771 Y114.876 E.02847
G1 X142.123 Y122.228 E.37908
G1 X142.247 Y123.004 E.02863
G1 X133.998 Y114.756 E.42527
G1 X133.907 Y114.741 E.00337
G1 X133.332 Y114.741 E.02097
G1 X142.259 Y123.668 E.46027
G1 X142.259 Y124.321 E.02378
G1 X132.679 Y114.741 E.4939
G1 X132.027 Y114.741 E.02378
G1 X142.259 Y124.973 E.52753
G1 X142.259 Y125.625 E.02378
G1 X131.375 Y114.741 E.56116
G1 X130.723 Y114.741 E.02378
G1 X142.259 Y126.277 E.5948
G1 X142.259 Y126.93 E.02378
G1 X130.07 Y114.741 E.62843
G1 X129.418 Y114.741 E.02378
G1 X142.259 Y127.582 E.66206
G1 X142.259 Y128.234 E.02378
G1 X128.766 Y114.741 E.69569
G1 X128.113 Y114.741 E.02378
G1 X142.259 Y128.887 E.72932
G1 X142.259 Y129.539 E.02378
G1 X127.461 Y114.741 E.76296
G1 X126.809 Y114.741 E.02378
G1 X142.259 Y130.191 E.79659
G1 X142.259 Y130.843 E.02378
G1 X126.157 Y114.741 E.83022
G1 X125.504 Y114.741 E.02378
G1 X142.259 Y131.496 E.86385
G1 X142.259 Y132.148 E.02378
G1 X124.852 Y114.741 E.89748
G1 X124.2 Y114.741 E.02378
G1 X142.259 Y132.8 E.93112
G1 X142.259 Y133.453 E.02378
G1 X123.547 Y114.741 E.96475
G1 X123.075 Y114.741 E.01722
G1 X122.919 Y114.765 E.00575
G1 X142.231 Y134.077 E.99571
G1 X142.141 Y134.64 E.02077
G1 X122.354 Y114.853 E1.02021
G1 X121.79 Y114.94 E.02084
G1 X142.052 Y135.203 E1.04471
G1 X141.962 Y135.765 E.02077
G1 X121.225 Y115.028 E1.06921
G1 X120.66 Y115.115 E.02084
G1 X141.872 Y136.328 E1.09371
G1 X141.836 Y136.556 E.00841
G1 X141.704 Y136.812 E.0105
G1 X120.176 Y115.284 E1.10996
G1 X119.746 Y115.506 E.01765
G1 X141.482 Y137.242 E1.1207
G1 X141.26 Y137.672 E.01765
G1 X119.316 Y115.728 E1.13143
G1 X118.885 Y115.95 E.01765
G1 X141.038 Y138.103 E1.14217
G1 X140.816 Y138.533 E.01765
G1 X118.455 Y116.172 E1.15291
G1 X118.152 Y116.328 E.01242
G1 X118.056 Y116.425 E.00498
G1 X140.563 Y138.932 E1.16046
G1 X140.237 Y139.258 E.01682
G1 X117.73 Y116.751 E1.16046
G1 X117.403 Y117.077 E.01682
G1 X139.911 Y139.585 E1.16046
G1 X139.585 Y139.911 E.01682
G1 X117.077 Y117.403 E1.16046
G1 X116.751 Y117.73 E.01682
G1 X139.258 Y140.237 E1.16046
G1 X138.932 Y140.563 E.01682
G1 X116.425 Y118.056 E1.16046
G1 X116.328 Y118.153 E.00499
G1 X116.172 Y118.455 E.01241
G1 X138.533 Y140.816 E1.15291
G1 X138.103 Y141.038 E.01765
G1 X115.95 Y118.885 E1.14217
G1 X115.728 Y119.316 E.01765
G1 X137.672 Y141.26 E1.13143
G1 X137.242 Y141.482 E.01765
G1 X115.506 Y119.746 E1.12069
G1 X115.284 Y120.176 E.01765
G1 X136.812 Y141.704 E1.10996
G1 X136.551 Y141.838 E.01069
G1 X136.329 Y141.874 E.0082
G1 X115.116 Y120.661 E1.09372
G1 X115.029 Y121.226 E.02083
G1 X135.766 Y141.963 E1.06922
G1 X135.204 Y142.053 E.02078
G1 X114.941 Y121.79 E1.04472
G1 X114.854 Y122.355 E.02083
G1 X134.641 Y142.142 E1.02021
G1 X134.078 Y142.232 E.02078
G1 X114.766 Y122.92 E.99571
G1 X114.741 Y123.079 E.00589
G1 X114.741 Y123.547 E.01706
G1 X133.453 Y142.259 E.96475
G1 X132.8 Y142.259 E.02378
G1 X114.741 Y124.2 E.93111
G1 X114.741 Y124.852 E.02378
G1 X132.148 Y142.259 E.89748
G1 X131.496 Y142.259 E.02378
G1 X114.741 Y125.504 E.86385
G1 X114.741 Y126.157 E.02378
G1 X130.843 Y142.259 E.83022
G1 X130.191 Y142.259 E.02378
G1 X114.741 Y126.809 E.79659
G1 X114.741 Y127.461 E.02378
G1 X129.539 Y142.259 E.76295
G1 X128.887 Y142.259 E.02378
G1 X114.741 Y128.113 E.72932
G1 X114.741 Y128.766 E.02378
G1 X128.234 Y142.259 E.69569
G1 X127.582 Y142.259 E.02378
G1 X122.218 Y136.895 E.27656
G1 X122.217 Y136.813 E.00299
G1 X122.07 Y136.739 E.00601
G1 X122.065 Y136.467 E.00993
G1 X121.814 Y136.341 E.01025
G1 X121.674 Y135.92 E.01618
G1 X121.606 Y135.92 E.00248
G1 X121.574 Y135.824 E.00369
G1 X121.143 Y135.82 E.01571
G1 X114.741 Y129.418 E.33006
G1 X114.741 Y130.07 E.02378
G1 X120.231 Y135.56 E.28304
G2 X119.585 Y135.566 I-.235 J8.724 E.02355
G1 X114.741 Y130.723 E.24975
G1 X114.741 Y131.375 E.02378
G1 X118.986 Y135.62 E.21887
G1 X118.381 Y135.62 E.02207
G1 X118.381 Y135.667 E.00172
G1 X114.741 Y132.027 E.18767
G1 X114.741 Y132.68 E.02378
G1 X118.247 Y136.185 E.18074
G1 X118.084 Y136.587 E.01582
G1 X118.041 Y136.631 E.00225
G1 X114.741 Y133.332 E.17011
G1 X114.754 Y133.997 E.02426
G1 X117.805 Y137.048 E.15729
G2 X117.781 Y137.387 I1.634 J.286 E.01243
G2 X117.757 Y137.652 I.64 J.192 E.00976
G1 X114.874 Y134.769 E.14865
G1 X114.993 Y135.541 E.02847
G1 X118.165 Y138.713 E.16355
G1 E-.728 F1800
;WIPE_START
G1 F30000
G1 X117.317 Y137.864 E-.072
;WIPE_END
G1 X122.018 Y137.347 Z.6
G1 Z.2
G1 E.8 F1800
G1 F6300
G1 X126.93 Y142.259 E.25325
G1 X126.277 Y142.259 E.02378
G1 X122.224 Y138.205 E.209
G1 X122.212 Y138.39 E.00676
G2 X122.064 Y138.697 I.489 J.425 E.01258
G1 X125.625 Y142.259 E.18363
G1 X124.973 Y142.259 E.02378
G1 X121.932 Y139.218 E.15677
G1 X121.932 Y139.424 E.0075
G1 X121.627 Y139.526 E.01175
G1 X121.617 Y139.555 E.00112
G1 X124.32 Y142.259 E.13939
G1 X123.668 Y142.259 E.02378
G1 X121.241 Y139.831 E.12515
G2 X120.887 Y139.873 I-.114 J.551 E.01321
G1 X120.779 Y139.981 E.00558
G1 X120.747 Y139.989 E.00122
G1 X123.003 Y142.246 E.11635
G1 X122.227 Y142.122 E.02865
G1 X120.143 Y140.038 E.10744
G1 X119.496 Y140.044 E.02359
G1 X121.451 Y141.999 E.10079
G1 X120.675 Y141.875 E.02865
G1 X118.85 Y140.049 E.09413
G1 X118.633 Y140.051 E.00789
G1 X118.633 Y139.987 E.00232
G1 X118.37 Y139.987 E.0096
G1 X118.37 Y139.57 E.01523
G1 X115.113 Y136.313 E.16792
G1 X115.15 Y136.552 E.00883
G1 X115.63 Y137.482 E.03815
G1 X119.506 Y141.358 E.19986
G1 X118.158 Y140.663 E.05529
G1 X115.847 Y138.351 E.11918
M106 S255
M106 P2 S178
;LAYER_CHANGE
;Z:0.4
;HEIGHT:0.2
;BEFORE_LAYER_CHANGE
;0.4
G92 E0

G1 E-.728 F1800
;WIPE_START
G1 F30000
G1 X116.695 Y139.2 E-.072
;WIPE_END
EXCLUDE_OBJECT_END NAME=V2Ottomat3d_Logomark_-_Black.stl_id_0_copy_0
;LAYER:2

;_SET_FAN_SPEED_CHANGING_LAYER
SET_VELOCITY_LIMIT ACCEL=10000
M140 S55 ; set bed temperature
EXCLUDE_OBJECT_START NAME=V2Ottomat3d_Logomark_-_Black.stl_id_0_copy_0
G17
G3 Z.8 I-.066 J1.215 P1
G1 X119.272 Y139.34 Z.8
G1 Z.4
G1 E.8 F1800
;TYPE:Inner wall
;WIDTH:0.45
G1 F9116.988
G1 X119.011 Y139.334 E.00843
G1 X119.011 Y139.105 E.00738
G1 X118.881 Y139.061 E.00441
G1 X118.835 Y138.923 E.00468
G1 X118.6 Y138.806 E.00844
G1 X118.6 Y138.6 E.00662
G2 X118.408 Y138.287 I-1.366 J.622 E.01185
G1 X118.396 Y137.57 E.02308
G2 X118.42 Y137.339 I-.565 J-.175 E.00751
G2 X118.444 Y137.227 I-.073 J-.074 E.00393
G2 X118.504 Y137.079 I-.044 J-.104 E.00569
G1 X118.62 Y136.955 E.00546
G1 X118.732 Y136.619 E.0114
G1 X118.904 Y136.619 E.00554
G1 X119.02 Y136.501 E.00534
G1 X119.02 Y136.259 E.00777
G1 X119.445 Y136.259 E.01367
G3 X119.517 Y136.223 I.054 J.018 E.00287
G1 X119.816 Y136.199 E.00966
G1 X120.161 Y136.199 E.01108
G2 X120.447 Y136.223 I.216 J-.86 E.0093
G2 X120.676 Y136.295 I.162 J-.116 E.00828
G2 X120.914 Y136.463 I.522 J-.487 E.00944
G1 X121.113 Y136.463 E.00639
G1 X121.145 Y136.559 E.00326
G1 X121.213 Y136.559 E.00219
G1 X121.291 Y136.794 E.00797
G1 X121.437 Y136.867 E.00524
G1 X121.437 Y137.079 E.00682
G2 X121.581 Y137.21 I.213 J-.091 E.00645
G1 X121.593 Y138.027 E.02632
G2 X121.581 Y138.183 I.228 J.096 E.00511
G1 X121.541 Y138.244 E.00234
G1 X121.423 Y138.597 E.01197
G1 X121.379 Y138.619 E.00159
G1 X121.329 Y138.794 E.00586
G1 X121.293 Y138.812 E.0013
G1 X121.293 Y138.964 E.00489
G1 X121.119 Y139.022 E.00589
G1 X121.062 Y139.192 E.00577
G1 X120.823 Y139.192 E.00771
G1 X120.806 Y139.226 E.00123
